!!!!SEGMENT: pl-kk--kk-i-1--059_anonim--communio-vos-qui-secuti.krn
!!!cenid: 15xx:784
!!!COM: Anonim
!!!COM-rismID: pe30004985
!!!CDT:
!!!CNT:
!!!OTL: Communio/Vos qui secuti
!!!PDT:
!!!AGN:
!!!SMS-siglum: PL-Kk
!!!SMS-shelfmark: Kk.I.1
!!!SMS-shelfwork: 059 W
!!!SMS-variant:
!!!SMS-altvar:
!!!NIFC-rismSourceID: 300257954
!!!NIFC-rismChildID: 300258013
!!!NIFC-islandoraID: pl-kk:1
!!!URL-pdf-islandora: https://repozytorium.nifc.pl/islandora/object/pl-kk%3A1/datastream/PDF/view
!!!URL-scan: https://polish.musicsources.pl/pl/lokalizacje/galeria/rekopisy/5736 @EN{Scan on Polish Music Sources Website} @PL{Skany w portalu Dziedzictwo Muzyki Polskiej w otwartym dostępie}
!!!IIIF: https://repozytorium.nifc.pl/islandora/object/pl-kk%3A1/datastream/IIIF/view
!!!ONB-nifc: UWAGA: Cantus (s. 183v, skan 0186), Altus (s. 186v, skan 0380), Tenor (s. 165v, skan 0556), Bassus (s. 181v, skan 0744).
!!!AIN: 1 alto 1 bass 1 soprn 1 tenor
!!!key: d:dor
**kern	**text	**kern	**text	**kern	**text	**kern	**text
*part4	*part4	*part3	*part3	*part2	*part2	*part1	*part1
*staff4	*staff4	*staff3	*staff3	*staff2	*staff2	*staff1	*staff1
*stria6	*	*stria6	*	*stria6	*	*stria6	*
*I"BASSVS	*	*I"TENOR	*	*I"ALTVS	*	*I"CANTVS	*
*I'B	*	*I'T	*	*I'A	*	*I'C	*
*Ibass	*	*Itenor	*	*Ialto	*	*Isoprn	*
*ICvox	*	*ICvox	*	*ICvox	*	*ICvox	*
*clefF5	*	*clefC4	*	*clefC5	*	*clefC3	*
*k[b-]	*	*k[b-]	*	*k[b-]	*	*k[b-]	*
*d:dor	*	*d:dor	*	*d:dor	*	*d:dor	*
*M2/1	*	*M2/1	*	*M2/1	*	*M2/1	*
*met(C|)	*	*met(C|)	*	*met(C|)	*	*met(C|)	*
=1-	=1-	=1-	=1-	=1-	=1-	=1-	=1-
!!LO:TX:t=P:
*xywh-#744:1365,667,4468,915	*	*xywh-#556:1227,665,4447,918	*	*xywh-#380:1508,616,4394,954	*	*xywh-#186:1193,661,4618,990	*
!	!	!LO:TX:a:i:t=Co(mun)io	!	!LO:TX:a:i:t=Co(mun)io	!	!LO:TX:b:i:t=Co(mun)io	!
1D	Vos	1D	Vos	1A	Voſ	1d	Vos
1AA	qui	1C,	q(ui)	1A	qui	1e	q(ui)
=2-	=2-	=2-	=2-	=2-	=2-	=2-	=2-
2D/	ſe-	1D	ſe-	1A	ſe-	2f\	ſe-
2.F\	-cu-	.	.	.	.	2d\	-cu-
.	.	1F	-cu-	1A	-cu-	2c/	-ti
4E/	.	.	.	.	.	.	.
4D/	.	.	.	.	.	1d/	ſe-
4C/	.	.	.	.	.	.	.
=3-	=3-	=3-	=3-	=3-	=3-	=3-	=3-
2BB-/	.	1F	-ti	2D/	-ti	.	.
*	*	*	*	*	*ij	*	*
2AA/	.	.	.	2A/	voſ	2c/	-cu-
2GG/	.	1G	eſ-	2B-\	qui	2B-/	-ti
2C/	.	.	.	2G/	ſe-	2.c/	e-
=4-	=4-	=4-	=4-	=4-	=4-	=4-	=4-
*	*	*lig	*	*	*	*	*
2FF/	-ti	1F	-tis	1A	-cu-	.	.
.	.	.	.	.	.	4A/	.
2FF/	ſe-	.	.	.	.	1d	.
2GG/	-cu-	1E	.	2B-\	-ti	.	.
*	*	*	*	*	*Xij	*	*
2AA/	-ti	.	.	1A\	e-	2c/	.
*	*	*Xlig	*	*	*	*	*
=5-	=5-	=5-	=5-	=5-	=5-	=5-	=5-
1BB-	e-	1D	.	.	.	2B-/	.
.	.	.	.	2G/	.	2.d\	-ſtis
2AA/	.	1F	me	1A	-ſtis	.	.
.	.	.	.	.	.	4c/	.
2FF/	-ſtis	.	.	.	.	1c/	me
=6-	=6-	=6-	=6-	=6-	=6-	=6-	=6-
*	*	*lig	*	*	*	*	*
1GG	me	1D	.	1G	me	.	.
.	.	.	.	.	.	2B-/	.
2r	.	1C	.	2E/	ſe-	1c	.
2C\	ſe-	.	.	2G/	-de-	.	.
*	*	*Xlig	*	*	*	*	*
=7-	=7-	=7-	=7-	=7-	=7-	=7-	=7-
2AA\	-di-	1C	ſe	2A/	-bi-	2r	.
*custos:GG	*	*	*	*	*	*	*
2C\	-bi-	.	.	1G	-tis	2c/	ſe-
!LO:LB:g=original	!	!	!	!	!	!	!
*xywh-#744:1444,1563,4337,824	*	*	*	*	*	*	*
2GG/	-tis	1D	de-	.	.	2B-/	-de-
1BB-/	ſu-	.	.	2.F/	ſu-	1d/	-bi-
=8-	=8-	=8-	=8-	=8-	=8-	=8-	=8-
.	.	1F	-bi-	.	.	.	.
.	.	.	.	4G/	.	.	.
2AA/	-per	.	.	1A	.	2c/	-tis
2.D\	ſe-	1F	-tis	.	.	2.f\	ſu-
.	.	.	.	2.D/	-per	.	.
4C/	.	.	.	.	.	4e\	.
=9-	=9-	=9-	=9-	=9-	=9-	=9-	=9-
2BB-/	.	1F	ſu-	.	.	2d\	-p(er)
.	.	.	.	4E/	.	.	.
*	*	*	*	*custos:E	*	*	*
2AA/	.	.	.	1F	.	2c/	.
*	*	*lig	*	*	*	*	*
*	*	*	*	*	*	*custos:A	*
1GG	.	1G	-p(er)	.	.	1B-	ſe-
*	*	*	*	*xywh-#380:1519,1504,4268,855	*	*	*
.	.	.	.	2E/	ſe-	.	.
!	!	!	!	!	!	!LO:LB:g=original	!
=10-	=10-	=10-	=10-	=10-	=10-	=10-	=10-
*	*	*	*	*	*	*xywh-#186:1481,1589,4397,826	*
1FF	-dem	1A	.	1F	-des	2A/	-des
.	.	.	.	.	.	2c/	.
*	*	*Xlig	*	*	*	*	*
2.GG/	iu-	1G	ſe-	1.D	iu-	2B-/	iu-
.	.	.	.	.	.	2.d\	-di-
4AA/	.	.	.	.	.	.	.
=11-	=11-	=11-	=11-	=11-	=11-	=11-	=11-
2BB-/	.	1G	-des	.	.	.	.
.	.	.	.	.	.	4c/	-can-
2C/	-di-	.	.	2E/	-di-	1c	-tes
1GG	-can-	1G	iu-	1D	-can-	.	.
.	.	.	.	.	.	2B-/	.
=12-	=12-	=12-	=12-	=12-	=12-	=12-	=12-
2C/	-tes	1G	-di-	2C/	.	1c	.
2C/	du-	.	.	2E/	-tes	.	.
2GG/	-o-	1G	-can-	2D/	du-	2r	.
2.C/	-de-	.	.	2.E/	-o-	2c/	du-
=13-	=13-	=13-	=13-	=13-	=13-	=13-	=13-
*	*	*lig	*	*	*	*	*
.	.	1E	-tes	.	.	2G/	-o-
4BB-/	.	.	.	4F/	-de-	.	.
4AA/	.	.	.	2G/	.	2.c/	-de-
4GG/	.	.	.	.	.	.	.
*	*	*custos:G	*	*	*	*	*
2FF/	.	1F	.	2.A/	.	.	.
.	.	.	.	.	.	4B-/	.
1F\	.	.	.	.	.	2A/	.
.	.	.	.	4B-\	.	.	.
*	*	*Xlig	*	*	*	*	*
!	!	!LO:LB:g=original	!	!	!	!	!
=14-	=14-	=14-	=14-	=14-	=14-	=14-	=14-
*	*	*xywh-#556:1383,1577,4213,742	*	*	*	*	*
.	.	1G	du-	1c	.	2.G/	.
2E\	.	.	.	.	.	.	.
.	.	.	.	.	.	4A/	.
*	*	*lig	*	*	*	*	*
2D\	.	1F	-o-	2.B-\	-cim	4B-/	.
.	.	.	.	.	.	4c/	.
2BB-\	.	.	.	.	.	2.d\	.
.	.	.	.	4A/	.	.	.
=15-	=15-	=15-	=15-	=15-	=15-	=15-	=15-
*custos:GG	*	*	*	*	*	*	*
1C	.	1E	.	1G	.	.	.
.	.	.	.	.	.	4c/	.
.	.	.	.	.	.	1c	.
*	*	*Xlig	*	*	*	*	*
!LO:LB:g=original	!	!	!	!	!	!	!
*xywh-#744:1522,2355,4272,857	*	*	*	*	*	*	*
1GG	-cim	1D	-de-	2r	.	.	.
.	.	.	.	1G/	tri-	2B-/	.
=16-	=16-	=16-	=16-	=16-	=16-	=16-	=16-
2r	.	1C	-cim	.	.	1c	-cim
1C	tri-	.	.	2E/	-bus	.	.
*	*	*lig	*	*	*	*	*
.	.	1E	tri-	2A/	Iſ-	1c	tri-
2AA/	-bus	.	.	2A/	-ra-	.	.
=17-	=17-	=17-	=17-	=17-	=17-	=17-	=17-
2D\	iſ-	1F	.	2D/	-el,	2A/	-bus
2D\	-ra-	.	.	2A\	tri-	2d\	iſ-
*	*	*Xlig	*	*	*	*	*
*	*	*lig	*	*	*	*	*
2GG/	-el	1G	-bus	1B-	-b(us)	2d\	-ra-
*	*ij	*	*	*	*	*	*
2GG/	tri-	.	.	.	.	2G/	-(e)l
=18-	=18-	=18-	=18-	=18-	=18-	=18-	=18-
2AA/	-bus	1F	.	2c\	Iſ-	2c/	.
*	*	*	*	*custos:G	*	*	*
2BB-/	iſ-	.	.	2B-\	-ra-	2d\	.
*	*	*Xlig	*	*	*	*	*
*	*	*lig	*	*	*	*	*
*	*	*	*	*xywh-#380:1519,2300,4317,915	*	*	*
1C	-ra-	1E	Iſ-	1G	-el	2.c/	.
*	*	*	*	*	*	*custos:A	*
.	.	.	.	.	.	4B-/	.
!	!	!	!	!	!	!LO:LB:g=original	!
=19-	=19-	=19-	=19-	=19-	=19-	=19-	=19-
*	*	*	*	*	*	*xywh-#186:1527,2421,4148,792	*
1FF	-el	1F	.	2r	.	2.A/	.
.	.	.	.	1c	di-	.	.
.	.	.	.	.	.	4G/	.
*	*Xij	*Xlig	*	*	*	*	*
1r	.	1D	-ra-	.	.	2F/	.
.	.	.	.	2B-\	-cit	1f\	Di-
=20-	=20-	=20-	=20-	=20-	=20-	=20-	=20-
!LO:TX:t=P:problem=pięć wykreślonych, błędnie wpisanych nut	!	!	!	!	!	!	!
2r	.	1C	-(e)l	2.c\	.	.	.
1C	di-	.	.	.	.	2e\	.
.	.	.	.	4B-\	do-	.	.
*	*	*lig	*	*	*	*	*
.	.	1E	di-	2G/	-mi-	4c/	-cit
.	.	.	.	.	.	4d\	.
2AA/	-cit	.	.	1c\	-nus	4e\	.
.	.	.	.	.	.	4c/	do-
=21-	=21-	=21-	=21-	=21-	=21-	=21-	=21-
2D\	d(o)-	1F	.	.	.	4d\	.
.	.	.	.	.	.	4e\	.
2D\	-m(i-	.	.	2B-\	.	2.f\	.
*	*	*Xlig	*	*	*	*	*
*custos:FF	*	*	*	*	*	*	*
1C	-nus)	1G	-cit	2c\	.	.	.
.	.	.	.	.	.	4e\	.
.	.	.	.	1c\	di-	2.e\	.
!LO:LB:g=original	!	!	!	!	!	!	!
=22-	=22-	=22-	=22-	=22-	=22-	=22-	=22-
*xywh-#744:1496,3199,4291,928	*	*	*	*	*	*	*
*	*ij	*lig	*	*	*	*	*
2r	.	1F	do-	.	.	.	.
.	.	.	.	.	.	4d\	.
2FF/	di-	.	.	2A\	-cit	1d	.
2GG/	-cit	1E	.	2B-\	do-	.	.
2AA/	d(o)-	.	.	1A\	-mi-	2c/	-mi-
*	*	*Xlig	*	*	*	*	*
=23-	=23-	=23-	=23-	=23-	=23-	=23-	=23-
*	*	*	*	*	*	*lig	*
1BB-	-m(i-	1D	.	.	.	1d	-nus
.	.	.	.	2G/	.	.	.
*	*	*lig	*	*	*	*	*
1AA	-nus)	1C	-mi-	1c	-n(us)	1e	.
*	*	*	*	*	*	*Xlig	*
=24-	=24-	=24-	=24-	=24-	=24-	=24-	=24-
2r	.	1D	.	1A	.	1d	.
2D\	di-	.	.	.	.	.	.
*	*	*Xlig	*	*	*	*	*
2.F\	.	00D/	-nus.	0A	.	2r	.
*	*	*	*	*	*	*	*ij
.	.	.	.	.	.	2d\	Di-
4E\	-cit	.	.	.	.	.	.
=25-	=25-	=25-	=25-	=25-	=25-	=25-	=25-
2.D\	d(o)-	.	.	.	.	2.f\	.
4C/	.	.	.	.	.	4e\	-cit
2.BB-/	.	.	.	2r	.	2.d\	do-
.	.	.	.	2F/	.	.	.
4AA/	.	.	.	.	.	4c/	.
=26-	=26-	=26-	=26-	=26-	=26-	=26-	=26-
2GG/	-m(i-	.	.	2G/	.	2B-/	-mi-
2FF/	.	.	.	2A/	.	2A/	.
1GG	.	0.ryy	.	2B-\	.	2G/	.
.	.	.	.	1G/	.	2B-/	.
=27-	=27-	=27-	=27-	=27-	=27-	=27-	=27-
!LO:N:vis=00	!	!	!	!	!	!LO:N:vis=00	!
0DD/	-nus)	.	.	.	.	0A/	-nus
!	!	!	!	!LO:TX:t=P:problem=# below	!	!	!
*	*Xij	*	*	*	*	*	*Xij
.	.	.	.	4F#X/	.	.	.
.	.	.	.	4E/	.	.	.
!	!	!	!	!LO:N:vis=00	!	!	!
.	.	.	.	1F#\	.	.	.
=||	=||	=||	=||	=||	=||	=||	=||
*-	*-	*-	*-	*-	*-	*-	*-
!!!system-decoration: s1,s2,s3,s4
!!!ENC: Mateusz Solarz
!!!END: 2022-02-23
!!!ENC: Urszula Świątek
!!!END: 2022-03-25
!!!ENC-iiif: Jan Barakat
!!!END-iiif: 2022-09-01
!!!YEC: Copyright 2022 Narodowy Instytut Fryderyka Chopina (https://polishscores.org)
!!!YEM: License CC-BY-4.0 (https://creativecommons.org/licenses/by/4.0)
